!!!OTL: Zum Sterben verliebt.
!!!OTL-incipit: ZUM STERBEN BIN ICH VERLIEBET
!!!ARE: Europa, Mitteleuropa, Deutschland, Franken
!!!SCT: Z1258
!!!TXL: @@DE
!!!YEM: Copyright 1995, estate of Helmut Schaffrath.
**kern	**text
*ICvox	*
*M3/8	*
*k[b-]	*
*F:	*
!LO:TX:a:t=Aus Franken.	!
{8cc	Ʒum
=1	=1
8ff	Ster-
8cc	-ben
8a	bin
=2	=2
4f}	ich
{16aL	ver-
16ccJ	.
=3	=3
8b-/	-lie-
8b-/	-bet
16aL	in
16ccJ	.
=4	=4
4g}	dich,
{16fL	dein'
16gJ	.
=5	=5
8a	ſchwarʒ-
8a	-brau-
8cc	-ne
=6	=6
8b-	Aeug-
8g}	-lein,
{16fL	dein'
16gJ	.
=7	=7
8a	ſchwarʒbraune
8a	.
8cc	.
=8	=8
8b-/	Aeuglein
8g}	.
{8cc	ver-
=9	=9
8ff	-füh-
16ccL	-ren
16b-J	.
16aL	ja
16gJ	.
=10	=10
4f}	mich.
==	==
!!!AGN: Liebes - Lied; Tanz
!!!ONB: ESAC (Essen Associative Code) Database: ZUCCAL
!!!AMT: simple triple
!!!AIN: vox
!!!EED: Helmut Schaffrath
!!!EEV: 1.0
!!!GTL: V. Lieder der Minne.
!!!URL-scan: https://www.digitale-sammlungen.de/de/view/bsb11160573?page=477
!!!ENC: Anna Maria Matuszewska
!!!EEV: 2025/02/06
*-	*-
